X:1
T:Sarabande und Chaconne aus dem Singspiel Almira
T:Sarabande and Chaconne
T:Arr. for piano by Franz Liszt
T:From the Opera "Almira" by George F. Handel
C:George Fredric Handel
Z:Arr. for piano by Franz Liszt
%%score { ( 1 3 5 ) | ( 2 4 ) }
L:1/8
Q:1/4=98
M:3/2
K:Bb
V:1 bass nm="Piano" snm="Pno."
V:3 bass 
V:5 bass 
V:2 bass 
V:4 bass 
V:1
"^Andante"!f! [D,D]4 [D,D]4 z2 [D,D]2 |!<(! [D,^F,D]4 [D,F,D]4 z4!<)! | %2
!ff! [D,B,D]4 [D,B,D]4 z2 [D,B,D]2 |!>(! [D,A,D]4!>)!!f! [D,A,D]4 z4 || %4
!p!"^SARABANDE" [G,B,D]4 [G,B,D]4 z2 [G,B,D]2 | [G,B,E]4 [G,B,E]4 z2 [G,B,E]2 | %6
 [F,A,E]4 [F,A,E]4 z2 [F,A,E]2 | E2 D2 D4 z2 [F,A,D]2 | [E,G,D]4 [E,G,D]4 z2 [E,G,D]2 | %9
 [E,G,C]4 [E,G,C]4 z2 [E,G,C]2 | C2 D2 B,6 A,2 | A,4 A,4 z4 |!f! [D,G,D]4 [D,B,D]4 z2 [G,B,G]2 | %13
 [G,CE]4 [G,CE]4 z2 [G,CE]2 | [F,CE]4 [F,A,E]4 z2 [F,A,F]2 | [F,A,D]4 [F,A,D]4 z2 [F,B,D]2 | %16
 E2 A,2 A,4 z2 ^F2 | G2 C2 C4 z2!mf! D2 |!>(! B,2 A,2 A,4- A,2 G,2 | G,4!>)!!mp! G,4 z4 || %20
[K:treble] z2!mp! !tenuto!d4 =B2 _A2 G2 | z2 !tenuto!g4 e2 d2 c2 | z2 !>!_a4 g4 d2 | %23
 e2[Q:1/4=92] f2!p! ^f2 g2 z2[Q:1/4=98]!mp! [G,CG]2 | [_A,C_A]4[K:bass] [F,G,=B,]4 z2 [E,G,B,]2 | %25
 [C,F,C]4 [_A,DF]4 z2 [G,DG]2 | E2 E2 E/F/E/F/ E2 D3 C | [E,C]4 [E,C]4 z4 | %28
 z2[K:treble]!mp! !tenuto!g4 e2 d2 c2 | z2 !tenuto!g4 f2 b2 [F,B,F]2 | %30
 G2 C2!>(! C/D/C/D/C/D/C/D/!>)!!pp! TC2- C B, | B,4 [D,B,]4 z4 |!pp! [DGBd]4 [DGBd]4 z2 [DGBd]2 | %33
 [GBe]4 [EGBe]4 z2 [EGBe]2 | [FAe]4 [FAe]4 z2 [FAe]2 | e2 d2 [FAd]4 z2 [FAd]2 | %36
 [EGd]4 [EGd]4 z2 [EGe]2 | [EGc]4 [EGc]4 z2 [EGc]2 | [^Fc]2 [Ad]2 [DGB]6 [EGA]2 | %39
{/B} [D^FA]4 [DFA]4!<(! z4!<)! | z!p! [Bb][Aa][Gg] z [=F=f][Ee][Dd] [^C^c][Dd][B,DB]G | %41
 z [ee'][dd'][cc'] z [Bb][Aa][Gg] [^F^f][Gg][Ee][Cc] | %42
 z [cc'][Bb][Aa] z [Aa][Gg][Ff] [=E=e][Ff]cF | z [dd'][cc'][Bb] z [Aa][Gg][Ff] [=E=e][Ff]dG | %44
 z"_cresc." [Bb][Aa][Gg] [^F^f][Gg][Aa][Bb]- [Bb][Aa] [A,DF]2 | %45
 z [cc'][Bb][Aa] [Gg][Aa][Bb][cc']- [cc'][Bb][dd'][cc']- | %46
!f! [cc'] [Bb]2 [Aa]- [Aa]2 [=E=e]4 [^F^f]2- | %47
 [Ff][Gg]!>(! [Aa]2- [Aa][Gg][^F^f][Gg] [Aa]2 [Bb]2!>)! |!p! [=Bdg=b]4 [Bdgb]4 z2 [Bdgb]2 | %49
 [cegc']4 [cegc']4 z2 [cec']2 | [cd_ad']4 !arpeggio![=Bgd']4 !arpeggio![dg=bf']4 | %51
 !arpeggio![cgc'e']4 !arpeggio![cgc'e']4 z2"_cresc." [Gcg]2 | [_Ac_a]2 x2 !>![=B,=B]4 z2 [B,B]2 | %53
 [CFc]2 x2 [F_Adf]2 x2 x2 [Gdg]2 | [EGce]2 [D_Acd]2 !>![EGce]4 [DG=Bd]2 [CGc]2 | %55
 [CEGc]4 [CEGc]4 z4 |!p! z [ee'][dd'][cc'] z [=B=b][cc'][dd'] [ee'][dd'][ee'][ff'] | %57
 z!8va(! [gg'][ff'][=e=e']!<(! [ff'][gg'][aa'][bb'] [c'c''] [bb']2!<)!!mf! [aa']- | %58
 [aa'] [gg']2 [ee']!8va)!!>(! [dd'][cc'][Bb][Aa] [Gg][Ff][Ee]!>)!!p![Dd] | %59
"_dim." [Cc][B,B][A,A][G,G] FEDC x4 |!p! x12 | x12 | %62
[Q:1/4=160]"^un poco più mosso""^con fuoco" x2 D/!f!E/D/E/ z2 [GBd] z [gbd'] z [GBd] z | %63
 x2 E/!f!F/E/F/ z2 [GBe] z [gbe'] z [GBe] z | x2 E/!f!F/E/F/ z2 [Ae] z [fae'] z [FAe] z | %65
 x2 D/!f!E/D/E/ z2 [FAd] z [fad'] z [FAd] z | x2 D/!f!E/D/E/ z2 [Gd] z [egd'] z [Gd] z | %67
 x2 C/!f!D/C/D/ z2 [EGc] z [egc'] z!f! [EGc] z | x2 [^FA] x x2 [GB] z x2 [^C=EG] z | %69
 z2 [D^F] z [DF] z [DFA] z [FAd] z D/F/A/d/ | %70
!ff! !^![DGd]2 (3[bd'][ac'][gb] !^![DGBd]2 (3[gb][fa][eg] (3[df][ce][Bd] !^![GBg]2 | %71
 !^![EGce]2 (3[c'e'][bd'][ac'] !^![EGe]2 (3[gb][fa][eg] (3[df][ce][Bd] !^![EGe]2 | %72
 !^![EFce]2 (3[c'e'][bd'][ac'] !^![EAce]2 (3[ac'][gb][fa] (3[df][ce][Bd] !^![FAf]2 | %73
 !^![DFAd]2 (3[d'f'][c'e'][bd'] !^![DFAd]2 (3[bd'][ac'][gb] (3[fa][eg][df] !^![DFGd]2 | %74
 !^![EGe]2!f! A/B/A/B/ A/B/A/B/ [ega]/b/a/b/ !^![ega] z !^![^Fd^f] z | %75
 !^![Gcg]2 c/d/c/d/ c/d/c/d/ [gc']/d'/c'/d'/ !^![gc'] z !^![EGd]2 | %76
 !^![DGB]2[K:bass]!sfz! B,/C/B,/C/ !>!A,/B,/A,/B,/ A,/B,/A,/B,/ !>!A,/B,/A,/B,/ A,/B,/A,/B,/ | %77
!ff! !>!G,/A,/G,/A,/ G,/A,/G,/[B,,D,]/ !>!D,/E,/D,/E,/ D,/E,/D,/B,,/ G,, z z2 | %78
[K:treble] (3[G,=B,][A,C][B,D] (3[A,C][B,D][CE] (3[B,D][CE][DF] (3[CE][DF][EG] (3[DF][EG][FA] (3[G=B][Ac][Bd] | %79
 (3[ce][df][eg] (3[df][eg][f_a] (3[eg][d^f]!mp![eg]!<(! (3[=fa][gb][ac']!8va(! (3[=bd'][c'e'][d'f'] (3[c'e'][d'f'][e'g']!<)! | %80
!f! (3[f'_a'][e'g'][d'f'] (3[c'e'][=bd'][_ac']!8va)!!>(! (3[gb][fa][eg] (3[df][ce][=Bd] (3[_Ac][GB][FA] (3[FA][EG]!>)!!mp![DF] | %81
"_dim." (3[DF][CE][=B,D] (3[CE][DF][D^F] (3[EG][D=F][CE] (3[B,D][CE][DF]!pp! [CE] z [G,CG]2 | %82
 !>![_A,C_A]4[K:bass] !>![F,G,=B,]4 z2 !>![E,G,B,]2 | !>![C,F,C]4 !>![_A,DF]4 z2 [G,DG]2 | %84
 E2 F2 E4 E2 D2 | C4 C2 x2 x4 | %86
[K:treble]!ff! !^![EGce]2 (3[eg][df][ce] !^![EFce]2 (3[ac'][gb][fa] (3[c'e'][bd'][ac'] !^![FAf]2 | %87
 !^![DBd]2 (3[eb][eg][df] !^![DBd]2 (3[fd'][ac']b (3!>![d'f'][c'e'][bd'] !^![FBf]2 | %88
 !^![GBg]2 c/d/c/d/ c/d/c/d/ c/d/c/d/ c/d/c/d/ c/d/c/d/ |!ff! B z x2 x8 | %90
[I:staff +1] [D,D]/[I:staff -1][Ee]/[I:staff +1][D,D]/[I:staff -1][Ee]/[I:staff +1] [F,F]/[I:staff -1][Gg]/[I:staff +1][F,F]/[I:staff -1][Gg]/ x4!<(! x/!8va(! [ee']/x/[ee']/ x/ [gg']/x/[gg']/!<)! | %91
 x/ [bb']/x/[bb']/ x/ [c'c'']/x/[c'c'']/ x/ !^![e'e'']/x/[e'e'']/ x/ [d'd'']/x/[d'd'']/ x/ [c'c'']/x/[c'c'']/ x/ [bb']/x/[bb']/ | %92
 x/ [aa']/x/[aa']/ x/ [gg']/x/[gg']/!8va)! x8 | x12 | x4[K:bass] x8 |!ff! x4 x4 z2 .[D,^F,D]2 | %96
 .[D,^F,D]4 .[D,F,D]4 z4 | x4 x4 z2 .[D,F,D]2 | .[D,F,D]4 .[D,F,D]4 z4 | x12 | %100
 z4 z4!f! .[_D,F,_D]2 z2 |!mf! .[_D,F,_D]2 z2 z4 z4 |!mp! .[_D,F,_D]2 z2 z4 z4 || %103
[K:Gb][Q:1/4=108]"^Più  moderato religioso"!p! [D,G,B,D]4 [D,G,B,D]4 z2 [D,G,B,D]2 | %104
 [E,G,B,E]4 [E,G,B,E]4 z4 | [E,G,CE]4 [E,G,CE]4 z2 [E,G,CE]2 | %106
 [F,-A,-C-E]4 [F,A,CD]2 z2[K:treble] [F-A-c-e]4 | [FAcd]2 z2!pp! [fac'e']4 [fac'd']2 z2 | %108
 z4 z4"^dolce expressivo" [DFd]4 | [D_Fd]4 [DFd]4 z2 [EGe]2[Q:1/4=98] | %110
[Q:1/4=108] [D_Fd]4 [CEc]4 z2 [CEc]2[Q:1/4=98] |[Q:1/4=108] [C__Ec]4 [CEc]4 z2 [D_Fd]2[Q:1/4=98] | %112
[Q:1/4=108] [C__Ec]4 [B,DB]4 z2 [B,DB]2[Q:1/4=98] |[Q:1/4=108] [__B,D_E__B]4 [A,DEA]4 [G,DEG]4 | %114
 [G,DEG]4 [F,DF]4 [G,EG]4 | [A,DA]4 [A,DA]4 z2 [A,DA]2 | [A,DA]4 [A,DA]4 z4 | %117
 [A,DGA]4 [A,DGA]4 z2"_cresc." [A,DEA]2 | [A,DGA]4 [A,B,GA]4 [A,=CGA]4 | %119
 [A,DFA]4 [A,DFA]4!f! z2[K:bass] .D,2 | .D,4 .D,4 z2 .D,2 | D,4 _C,4 z2 C,2 | C,4 A,4 z2 [D,F,D]2 | %123
!>(! [D,G,D]4[Q:1/4=98] [D,G,D]4 z2!>)![K:treble]!p![Q:1/4=108] g2 | e4 e4 z2 [G,B,E]2 | %125
 [F,CE]4[Q:1/4=98] [F,CE]4 z2!p![Q:1/4=108] f2 | %126
 d4[Q:1/4=98] d4 x2[K:bass]!mf![Q:1/4=108] [F,A,D]2 |!>(! E2 A,2 A,4[K:treble] e2 A2 | %128
 A4 e'6 a2!>)! |!pp! Ta8!p! (6:4:6=gabc'd'=d' | (6:4:6f'e'_d'c'ba (6:4:6=gba_gfe (6:4:6=dfe_dcB | %131
 (6:4:6A=GBA_GF (6:4:6E=DFEDE .F2 .E2 | .A2 ._G2 .=D2 .E2 [A,CF]4 | G2 C2 [G,C]4[Q:1/4=98] g2 c2 | %134
 c4[Q:1/4=108] g'6 c'2 |!pp! Tc'8!p!!8va(! (6:4:6c'bc'd'e'f' | %136
 (6:4:6a'g'f'e'=d'f' (6:4:6e'_d'c'bag!8va)! (6:4:6f!>(!agfe=d!>)! | %137
!pp! (6:4:6fe_dcBA (6:4:6GFAGFE (6:4:6=DEFEDE |!<(! .G2 .F2 .A2 .G2!<)!!p! [CGc]4 | %139
 [B,GB]4 [=A,E=A]4 [_A,_A]4 | [G,G]4 [F,F]4 [F,F]2 [E,E]2 | %141
[K:bass]!p! [D,D]4 [D,F,D]4 z2 [D,A,D]2 | [D,=G,D]4 [D,=E,D]4 z2 [D,D]2 | %143
!<(! [D,D]4 [D,F,D]4 z2!<)!!mf! [D,A,D]2 |!>(! [D,=G,D]4 [D,=E,D]4 z2!>)!!p! [D,D]2 | %145
 [D,D]4 [D,F,D]4 [=D,G,=D]4 | !^![E,A,E]6[Q:1/4=98]!<(! [F,F]2 [G,G]2 [A,A]2!<)! | %147
!mf![Q:1/4=108] [B,B]2!>(! [A,A]2 [G,G]2 [F,F]2!>)!!mp! [E,A,E]4 | %148
!>(! [D,A,D]4 [E,A,E]4 [D,A,D]4!>)! |!p! .[B,,G,B,]4 .[B,,G,B,]4 z2!p! G,,2 | %150
 .G,,4 .G,,4 z2!pp! G,,2 | .G,,4 .G,,4 z4 | z12 || %153
[K:Bb][M:3/4][K:treble][Q:1/4=120]"^Allegretto""^CHACONNE" x6!p! | x6 | x6 | x6 | z2 .C2 .D2 | %158
{/F} E2 z2 .C2 | .D2!f! [DG]2 [D^FA]2 | [DGB]2 [DGc]2 [DGd]2 | [EGe]2 [=FAc]2 [FAf]2 | d3 cBc | %163
 AcBAGA | [D^F]2!mp! [DG]2!<(! [DFA]2 | [DGB]2 [DGc]2 [DGd]2!<)! |!f! [EGe]2 [=FAc]2 [FAf]2 | %167
 [DBd]3 d[GBg][^F^f] | [Gg][Aa] [Bdb]2 ag | [Bdg]2 [Bdb]2 [Ada]2 | [GBg]2 [GBf]2 GA | [Bd]2 edcB | %172
 f2 [DFA]2 [DGB]2 | Bc [Bd]2 [Ac]2 | d3 =efe |!<(! [FAf][GBg] .[Acfa]2 .[Gc=eg]2!<)! | %176
!ff! [Acfa]2 [FAf]2 cd!p! | _e3 def | dedefd | [eg][df][eg][df][ce][Bd] | c2 fABA | %181
 Bc d2 [Cc][DB] | !arpeggio![DFB]2!f! .[Bdb]2 .[Ada]2 | .[GBg]2 .[GBf]2 GA | [Bd]2 edcB | %185
 [FAf]2 [CFc]2 [DFd]2 | [Ee]2 [FAf][Ece][DBd][CAc] | [DFd]3 [=EG=e][FAf][GBg] | %188
 [=EG=e][DFd][EGe][^FA^f][GBg][Aca] | [^FA^f] z!f! !>!D2 =E^F |GA ^F2 !>!D2 | =E^FGA ^F2 | %192
 !>!D2 =E^FGA | z2!p! ^F2 G2 | A2 B2 z2 | z2!p!"^staccato scherzando" .G x .A x | .B x .c x .d x | %197
 .e x .c x .f x | .d2 .d.c.B.c | .A x .B x .G x | .^F x .G x .[FA] x | .B.A.B.c.d.B | .e2 .c2 .f2 | %203
"_cresc." .d3 .B.g.^f | .g.[Aa]!f! .b2 .[d^fa]2 | .[G=Bg] z!p! g2 d2"_legato" | e2 fedc | %207
 [Dd]2 G2 c2 | dcdefg | e3 dc=B | cd e2{/de} dc |!mf! [Ec]2 cd=ec | [cf]2 FGAF | %213
 [B,DB][A,FA][B,GB][CAc][DBd][B,FB] |"_cresc." cBcdef | d3 =efe | [FAf][GBg] [Acfa]2 [Gc=eg]2 | %217
 [Acfa]2!f! gf[G=e][Fd] | [=E^c][^CA][D=B][Ec][Fd][G=e] | [Ff][Gg][=E=e][Ff][Gg][Aa] | %220
 .[FAdf] z!ff! D=CB,A, | DD [G,G]2 [A,^FA]2 | [B,B]2 [Cc]2 [Dd]2 | [Ee]2 [Ac]2 [Acf]2 | %224
 [Dd]2 x [Cc][B,B][Cc] | [A,A][Cc][B,B][A,A][G,G][A,A] | [^F,D^F] z!ff! DCB,A, | %227
 DD [G,G]2 [A,^FA]2 | [B,B]2 [Cc]2 [Dd]2 | [Ee]2 [Ac]2 [Acf]2 | d2 x [Dd][Gg][^F^f] | %231
!ff! [Gg][Aa] [Bb]2 [Aa][Gg] | [^F^f][Gg][Aa][Bb][^F^f][Gg] | [_A_a][Bb] [cc']2 [Bb][_A_a] | %234
 [Gg][_A_a][Bb][cc'][Aa][Gg] | ([Gg][_A_a]).[Bb].[cc'].[Aa].[Gg] | %236
 ([_A_a][Bb]).[cc'].[=d=d'].[ee'].[ff'] | .[ff'].[ee'].[dd'].[cc'].[Bb].[_A_a] | %238
 .[^f^f'].[ee'].[dd'].[cc'].[Bb].[=A=a] | .[^FAce] z!ff! (3^F/G/.F/ z (3G/A/.G/ z | %240
 (3A/B/.A/ z (3B/c/.B/ z (3c/d/.c/ z | .[Ac^fa] z!ff! (3A/B/.A/ z (3B/c/.B/ z | %242
 (3c/d/.c/ z (3d/e/.e/ z (3e/=f/.e/ z | [c^fac'] z!ff! (3c/d/.c/ z (3d/e/.e/ z | %244
 (3e/=f/.e/ z (3^f/g/.=f/ z (3g/a/.g/ z | (3a/b/.a/ z (3b/c'/.b/ z (3c'/d'/.c'/ z | %246
 (3d'/e'/.d'/ z!8va(! (3e'/f'/.e'/ z (3e'/f'/.e'/ z | %247
[Q:1/4=125]"^stringendo" e'/=f'/e'/f'/ e'/f'/e'/f'/ e'/f'/e'/f'/ | %248
[Q:1/4=130] e'/f'/e'/f'/ e'/f'/e'/f'/ e'/f'/e'/f'/ | %249
[Q:1/4=135]!<(! e'/^f'/e'/f'/ e'/g'/e'/g'/ e'/a'/e'/a'/!<)! | %250
!fff![Q:1/4=140] e'/b'/e'/b'/ e'/a'/e'/a'/ e'/g'/e'/g'/ | %251
[Q:1/4=145] x/ [bc'e'^f']/x/[bc'e'f']/ x/ [ac'e'f']/x/[ac'e'f']/ x/ [bc'e'f']/x/[bc'e'f']/ | %252
 x/[Q:1/4=150] [ac'e'^f']/x/[ac'e'f']/ x/ [bc'e'f']/x/[bc'e'f']/ x/ [ac'e'f']/x/[ac'e'f']/ | %253
!ff![Q:1/4=155] x/ [e'e'']/x/[d'd'']/x/[c'c'']/x/[bb']/x/[aa']/x/[^f^f']/!8va)! | %254
[I:staff +1] [Dd]/[Q:1/4=160][I:staff -1][ee']/[I:staff +1][Cc]/[I:staff -1][dd']/[I:staff +1][B,B]/[I:staff -1][cc']/[I:staff +1][A,A]/[I:staff -1][Bb]/[I:staff +1][^F,^F]/[I:staff -1][Aa]/[I:staff +1][_E,_E]/[I:staff -1][^F^f]/ | %255
 x6 |[K:bass] x6[Q:1/4=150][Q:1/4=140][Q:1/4=130] || %257
[K:G][M:3/2]!ff![Q:1/4=98]"^Grandioso trionfante (tempo della sarabande)" !^![D,G,B,D][D,G,B,D][D,G,B,D][D,G,B,D][K:treble] !^![DGBd][DGBd][DGBd][DGBd] [DGBd] z [dgbd'] z | %258
 !^![E,G,CE][E,G,CE][E,G,CE][E,G,CE] !^![EGce][EGce][EGce][EGce] [EGce] z [egc'e'] z | %259
!ff! !^![F,A,CE][F,A,CE][F,A,CE][F,A,CE] !^![FAce][FAce][FAce][FAce] [FAce] z [fac'e'] z | %260
!ff! !^![F,A,E][F,A,D][F,A,D][F,A,D] !^![DFAd][DFAd][DFAd][DFAd] [DFAd] z [dfad'] z | %261
!ff! !^![E,G,B,D][E,G,B,D][E,G,B,D][E,G,B,D] !^![EGBd][EGBd][EGBd][EGBd] [EGBd] z [dgbd'] z | %262
 x4 !^![CEGc][CEGc][CEGc][CEGc] [CEGc] z [cegc'] z | %263
!ff! [cfac']2 [dbd'][ec'e'] [dbd']2 [cac'][Bgb] [cac'][Bgb][Afa][Geg] | %264
 [Afa] z D2 (!>!^C2 D).E .D.=C.B,.A, | x4 !^![DGBd][DGBd][DGBd][DGBd] [DGBd] z [gbd'g'] z | %266
!ff! !^![E,G,CE][E,G,CE][E,G,CE][E,G,CE] !^![EGce][EGce][EGce][EGce] [EGce] z [egc'e'] z | %267
 x4 !^![E^Ae][EAe][EAe][EAe] [EAe] z [f^af'] z | %268
!ff! x4 !^![^DFB^d][DFBd][DFBd][DFBd] [DFBd] z [^df=a^d'] z | %269
!ff! [egc'] z [Acega][Acega] [Acega] z [CEGA][CEGA] [CEGA] z [fac'f'] z | %270
 [gc'g'] z [egc'][egc'] [egc'] z [EGc][EGc] [EGc] z [ege'] z | %271
 [Bgb]2 [cac'][dbd'] [ec'e'][dbd'][cac'][Bgb]!8va(! [ge'g'][fd'f'][ec'e'][dbd'] | %272
 [bg'b'][af'a'][ge'g'][fd'f'] [ec'e'][dbd']!8va)![cac'][Bgb]!>(! [dbd'][cac'][Bgb][Afa]!>)! || %273
[M:3/4][Q:1/4=132]"^Allegro"!f! [GBdg] z .[Bdb]2 .[Ada]2 | .[GBg]2 .[FBf]2 .[EGe]2 | %275
 [DGd]2 [Ee][Dd][Cc][B,B] | [Cc][Ee][Dd][Cc][B,B][A,A] | [B,DG] z .[B,DB]2 .[A,DA]2 | %278
 .[G,B,G]2[I:staff +1] .[F,B,F]2 .[E,G,E]2 | [D,G,D]2[I:staff -1][K:bass] [E,E][D,D][C,C][B,,B,] | %280
 [C,C][E,E][D,D][C,C][B,,B,][A,,A,] | [B,,D,G,] z[K:treble] [G,G][A,A][B,B][Cc] | %282
 !>![^C^c][Dd] [B,B][Dd][Ee][Ff] | .[GBdg] z [Gg][Aa][Bb][cc'] | %284
!<(! !>![^c^c'][dd'][Bb][dd'][ee'][ff']!<)! |!ff!!8va(! [gbd'g'][bb'][aa'][gg'][ff'][ee'] | %286
 !^![dgbd'][gg'][ff'][ee'][dd'][cc']!8va)! | !^![Bdgb][ee'][dd'][cc'][Bb][Aa] | %288
 !^![GBdg][Bb][Aa][Gg][Ff][Ee] | !^![DGBd][Gg][Ff][Ee][Dd][Cc] | !^![B,DGB][Ee][Dd][Cc][B,B][A,A] | %291
 [G,B,DG] z [GBdg] z!8va(! [gbd'g'][gbd'g'] | [gbd'g']!8va)! z [GBdg] z [G,B,DG][G,B,DG] | %293
 [G,B,DG]2 z2 z2 | [G,B,DG]2 z2 [G,B,DG]2 | [G,B,DG]2 z2 z2 |] %296
V:2
!8vb(!!ped! [D,,,D,,]4 [D,,,D,,]4 z2 [D,,,D,,]2!ped-up! | %1
!ped! [^F,,,D,,^F,,]4 [^F,,,D,,F,,]4!ped-up! z4 | %2
!ped! [B,,,D,,B,,]4 [B,,,D,,B,,]4 z2 [B,,,D,,B,,]2!ped-up! | %3
!ped! [A,,,D,,A,,]4 [A,,,D,,A,,]4!ped-up! z4 || [G,,,G,,]4 [G,,,G,,]4 z2 G,,2 | %5
 [C,,C,]4 [C,,C,]4 z2 [C,,C,]2 | !>![F,,,F,,]4 !>![F,,,F,,]4 z2 F,,2 | %7
 [B,,,B,,]4 [B,,,B,,]4 z2 [B,,,B,,]2 | [E,,,E,,]4 [E,,,E,,]4 z2 E,,2 | %9
 [A,,,A,,]4 [A,,,A,,]4 z2 [A,,,A,,]2 | D,,4 [G,,,G,,]4 [G,,,G,,]4 | [D,,,D,,]4 [D,,,D,,]4 z4 | %12
!ped! [B,,,B,,]4 [G,,,G,,]4!ped-up! z2 [G,,,G,,]2 |!ped! [C,,C,]4 [C,,C,]4!ped-up! z2 [C,,C,]2 | %14
!ped! [A,,,A,,]4 [F,,,F,,]4!ped-up! z2 [F,,,F,,]2 | %15
!ped! [B,,,B,,]4 [B,,,B,,]4!ped-up! z2 [B,,,B,,]2 | [C,,C,]4 [C,,C,]4 z2 [D,,D,]2 | %17
!ped! [E,,E,]4 [E,,E,]4!ped-up! z2 [C,,,C,,]2 | [D,,,D,,]4 [D,,,D,,]4 [D,,,D,,]4 | %19
 [G,,,G,,]4 [G,,,G,,]4 z4!8vb)! ||!p!!ped! [F,G,=B,]4 [F,G,B,]4 z2!ped-up! [F,G,B,]2 | %21
!ped! [E,G,C]4 [E,G,C]4!ped-up! z2 [_A,C]2 | [F,CD]4 [G,=B,D]4 [G,B,F]4 | [CE]4 [CE]4 z2!p! E,,2 | %24
!<(! !>!F,,2 !>!^F,,2 G,,2 _A,,2{/_B,,} A,,2 G,,2!<)! |!mp! _A,,4 [=B,,,=B,,]4 z2 [B,,,B,,]2 | %26
 [C,,C,]4 G,,4 [G,,,G,,]4 | [C,,C,]4 [C,,C,]4 z4 |!p! [CE]4 [CE]4 z2 [A,F]2 | %29
 [B,D]4 [B,D]4 z2 [D,,B,,]2 | [E,,E,]4 [F,,E,]4 [F,,E,]4 | [B,,D,]4 [B,,,B,,]4 z4 | %32
!mp!!ped! z!p!!<(! B,!ped-up!A,G, z F,E,D, ^C,D,B,,G,,!<)! | %33
!mp!!ped! z!p! E!ped-up!!<(!DC z B,A,G, ^F,G,E,C,!<)! | %34
!mp!!ped! z!p! C!ped-up!!<(!B,A, z A,G,F, =E,F,C,F,!<)! | %35
!mp!!ped! z!p! F!ped-up!!<(!_ED z DCB, A,B,F,B,!<)! | %36
!mp!!ped! z!p! B,!ped-up!!<(!A,G, ^F,G,A,B, CB,A,G,!<)! | %37
!mp!!ped! z!p! C!ped-up!B,A, G,A,B,C DCB,A, | B,A,G,^F, A,G,=F,E, D,B,,C,^C, | %39
 D,E,D,G, ^F,G,F,B, A,B,C^C | %40
!ped!!mp! !arpeggio![B,,G,D]2!ped!!ped-up! z2!ped-up!!ped! !arpeggio![B,,G,D]2!ped! z2!ped-up! z2 [G,,D,G,]2 | %41
 [C,,C,]2!ped! z2!ped-up! [G,B,E]2!ped!!ped-up! z2 z2 [C,G,B,]2 | %42
 [F,,C,F,]2!ped! z2!ped-up! [F,A,CE]2!ped! z2!ped-up! z2 [F,A,]2 | %43
 [F,A,]2!ped! z2!ped-up!!ped! !arpeggio![B,,F,A,D]2!ped! z2!ped-up! z2 [B,,G,B,]2 | %44
!ped! [C,,C,]2 [E,G,A,]2!ped-up!!ped! [C,E,G,A,]4!ped-up! z2 [D,,D,]2 | %45
!ped! [E,,E,]2 [E,G,C]2!ped-up!!ped! [E,G,C]4!ped-up! z2 !arpeggio![C,G,E]2 | %46
 [D,G,D]4 !>![D,G,C]6 [D,A,C]2 | %47
!ped! !arpeggio![G,,D,G,B,]2 z2!ped-up!!ped! !arpeggio![G,,D,G,B,]2 z2!ped-up! z2 [G,D]2 | %48
 =F,2 z2 F,2 z2 z4 | E,2 x2 E,2 x2 =B,C_A,G, | %50
!ped! F,2 x2!ped-up!!ped! G,2!ped-up! x2!ped-up!!ped! z [G,=B,][A,C][B,D] | %51
!ped! C,2 x2!ped-up!!ped! C,2 x2 x2!ped-up! [E,,E,]2 | z _A,G,F,!ped! F,_A,!ped-up!F,E, D,F,E,G, | %53
 z [_A,C][G,B,][F,A,]!ped! z [F,A,][G,_B,][F,A,]!ped-up! [E,G,][D,F,] [=B,,G,=B,]2 | %54
 [C,C][E,,E,][F,,F,][^F,,^F,] [G,,G,][_A,,_A,][G,,G,][^F,,^F,] [G,,G,][=F,,=F,][E,,E,][D,,D,] | %55
 [E,,E,][D,,D,][C,,C,][=B,,,=B,,] [C,,C,][D,,D,][E,,E,][F,,F,] [^F,,^F,]2 [G,,G,]2 | %56
!ped! !arpeggio![C,G,CE]4!ped-up!!ped! !arpeggio![=A,,F,CE]4!ped-up! z2 [F,A,CF]2 | %57
!ped! !arpeggio![D,B,F]4!ped-up!!ped! !arpeggio![B,,F,B,D]4!ped-up! z2 !arpeggio![D,B,F]2 | %58
!ped! !arpeggio![E,B,CG]4!ped-up!!ped! !arpeggio![F,B,EG]4!ped-up! z2 !arpeggio![F,,A,]2 | %59
 [B,,D,]4 F,E,D, x B,A,G,F, | E,D,G,F, E,D,C,B,,"^dim." A,,B,,C,D, | %61
 B,,C,D,E, .C,2 .B,,2 .A,,2!pp! .D,2 |!f!!ped! [D,G,B,D]2 x2!mf! !^!TD6!ped-up!!f! D z | %63
!ped! [G,B,E]2 x2!mf! !^!TE6!f! E!ped-up! z |!ped! [F,A,E]2 x2!mf! TE6 E!ped-up! z | %65
!f!!ped! [F,A,E]2 x2!mf! !^!TD6!f! D!ped-up! z |!ped! [G,D]2 x2!mf! !^!TD6!f! D/E/!ped-up! z | %67
!ped! [E,G,C]2 x2!mf! !^!TC6 C!ped-up! z | D, z x2 G, z x2 G,/A,/G,/^F,/ G,/B,/A,/G,/ | %69
 A,/B,/A,/G,/ A,/C/B,/A,/ ^F,/G,/F,/=E,/ F,/A,/G,/F,/ D,/F,/A,/[I:staff -1]^C/[I:staff +1] z2 | %70
!ped! !^![B,,G,B,]2 x2!ped-up!!ped! !^![G,,D,G,]2 x2 x2 !^![G,,G,]2!ped-up! | %71
!ped! !^![C,E,G,C]2 x2 !^![C,G,C]2 x2 x2!ped-up! !^![C,G,C]2 | %72
!ped! !^![A,,F,A,]2 x2!ped-up!!ped!!fff! !^![F,,F,]2 x2 x2!ped-up! !^![F,,F,]2 | %73
!ped!!ff! !^![B,,F,A,]2 x2 !^![B,,F,A,]2 x2 x2!ped-up! !^![B,,G,B,]2 | %74
!ped! !^![C,,C,]2 [C,G,A,]2 [C,G,A,]2 z2 z z!ped-up! !^![D,D]2 | %75
!ped! !^![E,,E,]2 [E,G,C]2 [E,G,C]2 x2 x2!ped-up! !^![C,,C,]2 | %76
 !^![D,,D,]2!fff! [D,,D,]2 !>![E,,E,]2 [C,,C,]2 !>![E,,E,]2 [D,,D,]2 | %77
!ped! !>!G,,/A,,/G,,/A,,/ G,,/A,,/G,,/D,,/ !>!D,,/E,,/D,,/E,,/ D,,/E,,/D,,/!ped-up!B,,,/!ped! G,,,!ped-up! z z2 | %78
!mp! .[F,,D,F,]4 .[F,,D,F,]4 z2 [F,=B,D]2 | .[E,CE]4 .[E,CE]4 z2 !arpeggio![E,G]2 | %80
!ped! !arpeggio![F,D_A]4!ped-up!!ped! [G,DF]4 z2!ped-up! [=B,,G,]2 | %81
 [C,G,]4 [C,,G,,]4 z2!f! [E,,E,]2 | !>!TF,,4!mp!{/F,,} !>!TG,,6- G,,- G,,/ G,,/ | %83
 !>!T_A,,4!ped! !>!=B,,,=B,,/C,/B,,/C,/B,,/C,/ TB,,2-!ped-up! B,,- B,,/ B,,/ | %84
 !>!TC,4 !>!T_A,,4 !>!TA,,4 | %85
 !>!A,,/B,,/A,,/B,,/A,,/B,,/A,,/B,,/ !>!G,,/A,,/G,,/A,,/ !>!F,,/G,,/F,,/G,,/ !>!E,,/F,,/E,,/F,,/ !>!D,,/E,,/D,,/E,,/ | %86
!ped! !^![C,G,C]2 x2!ped-up!!ped! !^![=A,,F,=A,]2 x2!ped-up! x2 !^![F,,F,]2 | %87
!ped! !^![B,,F,B,]2 x2!ped-up!!ped! !^![B,,F,B,]2 x2!ped-up! x2 !^![D,,D,]2 | %88
 !^![E,,E,]2 !^![E,B,C]2 !^![G,B,E]2 !^![_G,B,E]2 !^![F,A,E]2 !>!!^![F,,F,]2 | %89
 [B,,F,B,] z!ped! x/ [C,C]/x/[C,C]/ x/ [E,E]/x/[E,E]/ x/ [G,G]/x/[G,G]/ [A,,A,]/!ped-up![I:staff -1][B,B]/[I:staff +1][A,,A,]/!ped-up![I:staff -1][B,B]/!ped![I:staff +1] !^![B,,B,]/[I:staff -1][Cc]/[I:staff +1][B,,B,]/[I:staff -1][Cc]/ | %90
[I:staff +1] x4[K:treble] [A,A]/!ped-up![I:staff -1][Bb]/[I:staff +1][A,A]/[I:staff -1][Bb]/!ped![I:staff +1] !^![B,B]/[I:staff -1][cc']/[I:staff +1][B,B]/[I:staff -1][cc']/!<(![I:staff +1] [Dd]/x/[Dd]/ x/ [Ff]/x/[Ff]/ z/!<)! | %91
 [Aa]/x/[Aa]/ x/ [Bb]/x/[Bb]/ x/!ped! !^![dd']/x/[dd']/ x/ [cc']/x/[cc']/ x/ [Bb]/x/[Bb]/ x/ [Aa]/x/[Aa]/ x/!ped-up! | %92
 [Gg]/x/[Gg]/ x/ [Ff]/x/[Ff]/ x/!ped! !^![Dd]/[I:staff -1]!^![ee']/[I:staff +1][Dd]/[I:staff -1][ee']/[I:staff +1] [Cc]/[I:staff -1][dd']/[I:staff +1][Cc]/[I:staff -1][dd']/[I:staff +1] [B,B]/[I:staff -1][cc']/[I:staff +1][B,B]/[I:staff -1][cc']/[I:staff +1] [A,A]/[I:staff -1][Bb]/[I:staff +1][A,A]/[I:staff -1][Bb]/!ped-up! | %93
[I:staff +1] [G,G]/[I:staff -1][Aa]/[I:staff +1][G,G]/[I:staff -1][Aa]/[I:staff +1] [F,F]/[I:staff -1][Gg]/[I:staff +1][F,F]/[I:staff -1][Gg]/[I:staff +1][K:bass]!ped! !^![D,D]/[I:staff -1]!^![Ee]/[I:staff +1][D,D]/[I:staff -1][Ee]/[I:staff +1] [C,C]/[I:staff -1][Dd]/[I:staff +1][C,C]/[I:staff -1][Dd]/[I:staff +1] [B,,B,]/[I:staff -1][Cc]/[I:staff +1][B,,B,]/[I:staff -1][Cc]/[I:staff +1] [A,,A,]/[I:staff -1][B,B]/[I:staff +1][A,,A,]/[I:staff -1][B,B]/!ped-up! | %94
[I:staff +1] [G,,G,]/[I:staff -1][A,A]/[I:staff +1][G,,G,]/[I:staff -1][A,A]/[I:staff +1] [F,,F,]/[I:staff -1][G,G]/[I:staff +1][F,,F,]/[I:staff -1][G,G]/!ped![I:staff +1] !^![D,,D,]/[I:staff -1]!^![E,E]/[I:staff +1][D,,D,]/[I:staff -1][E,E]/[I:staff +1] [C,,C,]/[I:staff -1][D,D]/[I:staff +1][C,,C,]/[I:staff -1][D,D]/[I:staff +1] [B,,,B,,]/[I:staff -1][C,C]/[I:staff +1][B,,,B,,]/[I:staff -1][C,C]/[I:staff +1] [A,,,A,,]/[I:staff -1][B,,B,]/[I:staff +1][G,,,G,,]/[I:staff -1][B,,B,]/!ped-up! | %95
!ped![I:staff +1] !^![^F,,,D,,^F,,]/[I:staff -1]!^![D,^F,D]/[I:staff +1][F,,,D,,F,,]/[I:staff -1][D,F,D]/[I:staff +1][F,,,D,,F,,]/[I:staff -1][D,F,D]/[I:staff +1][F,,,D,,F,,]/[I:staff -1][D,F,D]/[I:staff +1] !^![F,,,D,,F,,]/[I:staff -1]!^![D,F,D]/[I:staff +1][F,,,D,,F,,]/[I:staff -1][D,F,D]/[I:staff +1][F,,,D,,F,,]/[I:staff -1][D,F,D]/[I:staff +1][F,,,D,,F,,]/[I:staff -1][D,F,D]/[I:staff +1] z2!ped-up! .[F,,,D,,F,,]2 | %96
 .[^F,,,D,,^F,,]4 .[F,,,D,,F,,]4 z4 | %97
!ped! !^![=F,,,D,,=F,,]/[I:staff -1]!^![D,=F,D]/[I:staff +1][F,,,D,,F,,]/[I:staff -1][D,F,D]/[I:staff +1][F,,,D,,F,,]/[I:staff -1][D,F,D]/[I:staff +1][F,,,D,,F,,]/[I:staff -1][D,F,D]/[I:staff +1] !^![F,,,D,,F,,]/[I:staff -1]!^![D,F,D]/[I:staff +1][F,,,D,,F,,]/[I:staff -1][D,F,D]/[I:staff +1][F,,,D,,F,,]/[I:staff -1][D,F,D]/[I:staff +1][F,,,D,,F,,]/[I:staff -1][D,F,D]/!ped-up![I:staff +1] z2 .[F,,,D,,F,,]2 | %98
 .[F,,,D,,F,,]4 .[F,,,D,,F,,]4 z4 | %99
!ped! !^![F,,,_D,,F,,]/[I:staff -1]!^![_D,F,_D]/[I:staff +1][F,,,D,,F,,]/[I:staff -1][D,F,D]/[I:staff +1][F,,,D,,F,,]/[I:staff -1][D,F,D]/[I:staff +1][F,,,D,,F,,]/[I:staff -1][D,F,D]/[I:staff +1] !^![F,,,D,,F,,]/[I:staff -1]!^![D,F,D]/[I:staff +1][F,,,D,,F,,]/[I:staff -1][D,F,D]/[I:staff +1][F,,,D,,F,,]/[I:staff -1][D,F,D]/[I:staff +1][F,,,D,,F,,]/[I:staff -1][D,F,D]/!ped-up![I:staff +1] [F,,,D,,F,,]/[I:staff -1][D,F,D]/[I:staff +1][F,,,D,,F,,]/[I:staff -1][D,F,D]/[I:staff +1][F,,,D,,F,,]/[I:staff -1][D,F,D]/[I:staff +1][F,,,D,,F,,]/[I:staff -1][D,F,D]/ | %100
!ped![I:staff +1] .[F,,,_D,,F,,]2 z2"^dim." z4!ped-up!!ped! .[F,,,_D,,F,,]2 z2!ped-up! | %101
!ped! .[F,,,_D,,F,,]2 z2 z4 z4!ped-up! |!ped! .[F,,,_D,,F,,]2 z2!ped-up! z4 z4 || %103
[K:Gb]!ped!!8vb(! !>![G,,,G,,]2 [A,,,A,,]2!ped-up! [B,,,B,,]2!ped-up!!ped! !>![G,,,G,,]2 [A,,,A,,]2 [B,,,B,,]2 | %104
!ped! !>![G,,,G,,]2 [A,,,A,,]2 [B,,,B,,]2!ped-up!!ped! !>![G,,,G,,]2 [A,,,A,,]2!ped-up! [B,,,B,,]2 | %105
!ped! !>![G,,,G,,]2 [A,,,A,,]2 [C,,C,]2!ped-up!!ped! !>![G,,,G,,]2 [A,,,A,,]2!ped-up! [C,,C,]2 | %106
!ped! !>![G,,,G,,]2 [A,,,A,,]2 [C,,C,]2 [D,,D,]2!ped-up!!ped! !>![G,,,G,,]2!ped-up! [A,,,A,,]2 | %107
 [C,,C,]2 [D,,D,]2!ped-up!!ped!!>(! !>![G,,,G,,]2 [A,,,A,,]2 [C,,C,]2 [D,,D,]2 | %108
 [F,,F,]2 [E,,E,]2 [D,,D,]2 [C,,C,]2!>)!!pp! [B,,,B,,]2 [A,,,A,,]2 | %109
!ped! !>![G,,,G,,]2 [A,,,A,,]2 [B,,,B,,]2 [D,,D,]2 !>![G,,,G,,]2!ped-up! z2!8vb)! | %110
!ped! [G,,,G,,]2 [B,,,B,,]2!ped-up!!ped! [C,,C,]2!ped-up! [E,,E,]2 [G,,G,]2 z2 | %111
!ped! [G,,,G,,]2 [C,,C,]2 [__E,,__E,]2 [F,,F,]2 [G,,G,]2 z2!ped-up! | %112
 z2 [F,,F,]2 [G,,G,]2 [A,,A,]2 [G,,G,]2 z2 | z2!8vb(! [G,,,G,,]2 z2 [A,,,A,,]2 z2 [__B,,,__B,,]2 | %114
 z2 !>![__B,,,__B,,]2 z2 [A,,,A,,]2 z2 [G,,,G,,]2 | %115
!<(!!ped! [F,,,F,,]2 [A,,,A,,]2 [D,,D,]2!ped-up! [E,,E,]2!<)!!mp! [F,,F,]2 z2 | %116
!>(! [_F,,_F,]2 [E,,E,]2 [D,,D,]2 [A,,,A,,]2!>)!!pp! [_F,,,_F,,]2 z2 | %117
!ped! !>![E,,,E,,]2 [A,,,A,,]2!8vb)!!ped-up!!ped! [D,,D,]2 [E,,E,]2!ped-up! [G,,G,]2 z2 | %118
 z4 !arpeggio![E,,A,,B,,G,]4 !arpeggio![E,,A,,=C,G,]4 | %119
!ped! !arpeggio![D,,A,,D,F,]4 !arpeggio![D,,A,,D,F,]4 z2!8vb(! .[D,,,D,,]2!ped-up! | %120
 .[D,,,D,,]4 .[D,,,D,,]4 z2 .[D,,,D,,]2 | [D,,,D,,]4 [_C,,,_C,,]4 z2 [C,,,C,,]2 | %122
 [C,,,C,,]4 [A,,,A,,]4!8vb)! z2 [C,,C,]2 | %123
 [B,,,B,,]2 [=A,,,=A,,]2 [B,,,B,,]2 [_A,,,_A,,]2 [G,,,G,,]2 D2 | E4 F2 G2{/F} E2 [C,,C,]2 | %125
 [A,,,A,,]2 [=G,,,=G,,]2 [A,,,A,,]2 [_G,,,_G,,]2 [F,,,F,,]2 C2 | D2 E2 =E2 F2 D2 [B,,,B,,]2 | %127
 [C,,G,,C,]4!ped! [C,,A,,C,]4 [C,G,A,]4-!ped-up! | [C,G,A,]2 z2!ped-up![K:treble]!ped! [CGA]6 z2 | %129
 !fermata!z12 | x12 | x12 | x4 x4[K:bass] [D,,_D,]4 |!ped! [E,,E,]4 [E,,C,E,]4 [E,CE]4-!ped-up! | %134
 [E,CE]2 z2[K:treble] [EGc]6 z2 | !fermata!z12 | x12 | x12 | x8!ped-up![K:bass]!ped! E,2 G,,2 | %139
!ped! D,2 G,,2!ped-up!!ped! =C,2 G,,2!ped-up!!ped! _C,2 F,,2!ped-up! | %140
!ped! B,,2 D,,2!ped-up!!ped! A,,2 D,,2!ped-up!!ped! G,,2 D,,2!ped-up! | %141
!8vb(!!ped! [F,,,F,,]2 [G,,,G,,]2 [A,,,A,,]2 [B,,,B,,]2 [C,,C,]2 z2!ped-up! | %142
!ped! [=E,,,=E,,]2 [^F,,,^F,,]2 [=G,,,=G,,]2!ped-up! [=A,,,=A,,]2 [=B,,,=B,,]2 z2 | %143
!ped! [=F,,,=F,,]2 [_G,,,_G,,]2 [_A,,,_A,,]2!ped-up! [_B,,,_B,,]2 [C,,C,]2 z2 | %144
!ped! [=E,,,=E,,]2 [^F,,,^F,,]2 [=G,,,=G,,]2!ped-up! [=A,,,=A,,]2 [=B,,,=B,,]2 z2 | %145
 z4 [_A,,,_C,,_A,,]4 [_G,,,C,,_G,,]4 |!ped! !^![F,,,C,,F,,]6!ped-up! z2 z4 | z4 z4 [F,,,C,,F,,]4 | %148
 [F,,,D,,F,,]4 [F,,,C,,F,,]4 [F,,,D,,F,,]4 | .[G,,,D,,G,,]4 .[G,,,D,,G,,]4 z2 G,,,2 | %150
 .G,,,4 .G,,,4 z2 G,,,2 | .G,,,4 .G,,,4!8vb)! z4 | z12 ||[K:Bb][M:3/4] z2 .^F,2 .G,2 | %154
 .A,2 .B,2 .C2 | z2 .A,2 .B,2 | .C2 .D2 .E2 | z2 .C,2 .D,2 |{/F,} E,2 z2 .C,2 | %159
 .D,2 [B,,B,]2 [A,,A,]2 | [G,,G,]2 [A,,A,]2 [B,,B,]2 | [C,C]2 [=F,C]2 [F,,F,]2 | %162
 [B,,B,]2 [A,,A,]2 [G,,G,]2 | [C,G,A,]2 [D,G,B,]2 [E,G,]2 | [D,A,]2 [B,,B,]2 [A,,A,]2 | %165
 [G,,G,]2 [A,,A,]2 [B,,B,]2 | [C,C]2 [=F,C]2 !>![F,,F,]2 | [B,,B,]2 [G,,G,]2 [E,B,E]2 | %168
 !arpeggio![C,G,CE]2 !arpeggio![D,G,B,D]2 !arpeggio![D,A,C^F]2 | [G,B,DG]2 [G,DG]2 [=F,D=F]2 | %170
 [E,B,E]2 [D,B,D]2 G,A, | [B,,B,]2 [A,,A,]2 [G,,G,]2 | [F,,F,]2 [D,,D,]2 [G,,G,]2 | %173
 [E,,E,]2 [F,,F,]2 [F,,F,]2 | [B,,F,]2 [B,,B,]2 [A,,A,]2 | %175
 !>![F,,F,]2 .[C,F,A,C]2 !arpeggio!.[C,G,C=E]2 | !arpeggio![F,A,CF]2 F,G,A,B, | C2 G,2 A,2 | %178
 B,2 G,2 [D,B,]2 | [E,B,]2 z2 E,2 | F,2 A,DDC | CB, B,2 A,F, | %182
 !arpeggio![B,,F,B,]2 .[G,DG]2 .[F,DF]2 | .[E,B,E]2 .[D,B,D]2 G,A, | [B,,B,]2 [A,,A,]2 [G,,G,]2 | %185
 !>![F,,F,]2 [A,,F,A,]2 [B,,F,B,]2 | [C,C]2 [F,C]2 !>![F,,F,]2 | %187
 [B,,F,]2 !arpeggio![A,,C]2 !arpeggio![G,,B,]2 | [C,G,]2 !arpeggio![A,,C]2 B,C | %189
 [D,A,D] z !>![D,,D,]2 =E,^F, |G,A, ^F,2 !>!D,2 | =E,^F,G,A, F,2 | !>!D,2 =E,^F,G,A, | %193
 z2 ^F,2 G,2 | A,2 B,2 z2 | z2 .B,,.[D,G,] .D,,.[^F,A,] | .G,,.[G,B,] .A,,.[G,A,] .B,,.[G,B,] | %197
 .C,.[G,C] .=F,.[A,C] .F,,.[A,C] | .B,,.[F,B,] .A,,.[^F,A,] .G,,.[G,B,] | %199
 .C,.[G,A,] .D,.[G,B,] .E,,.E, | .[D,,D,].[C,,C,].[B,,,B,,].[C,,C,].[A,,,A,,].[B,,,B,,] | %201
 .[G,,,G,,] x .[A,,,A,,] x .[B,,,B,,] x | .[C,,C,] x .F,, x .F,, x | .B,, x .G,, x .E, x | %204
 .C, x .D, x .D, x | .[G,,G,] z [G,=B,][A,C][B,D][G,B,] | [CE]2 [_B,C]2 [_A,C]2 | %207
 [G,=B,]2 [F,B,]2 [E,C]2 | C4 =B,2 | C2 =B,2 C2 | C4 =B,2 | [C,C]2 [C,C]2 [B,,B,]2 | %212
 [A,,A,]2 [G,,G,]2 !>![F,,F,]2 | [G,,G,]2 !>![F,,F,][_E,,_E,] [D,,D,]2 | %214
 [E,,E,]2 [C,,C,]2 !>![F,,A,]2 | [B,,F,B,]2 [B,,G,B,]2 [A,,C]2 | %216
 !>![F,,F,]2 [C,,C,]2 !arpeggio![C,G,C=E]2 | [F,A,F]2 [D,,D,]2 [G,,G,]2 | %218
 [A,,A,]2 [G,,G,]2 !>![F,,F,]2 | [D,,D,]2 [A,,A,]2 [A,,,A,,]2 | %220
 .[D,,D,] z [D,,D,][=C,,=C,][B,,,B,,][A,,,A,,] | [D,,D,] D, D,D, D,D, | !>!D,G, G,G,G,G, | %223
 !>!G,C!ped! CCF,F, | x2!ped-up!!ped! F,B,F, [A,,A,][G,,G,]!ped-up![A,,A,] | %225
 !>![F,,F,][E,,E,][D,,D,][C,,C,][B,,,B,,][C,,C,] | [D,,D,] z [D,,D,][C,,C,][B,,,B,,][A,,,A,,] | %227
 [D,,D,] D, D,D, D,D, | !>!D,G, G,G,G,G, | !>!G,C!ped! CF,F,!ped-up!F, | %230
 [B,,B,][A,,A,][G,,G,][B,,B,][E,E][D,D] |!ped! [C,C]2 [C,,C,]2 !>![^F,B,E]2-!ped-up! | %232
 [F,B,E] z !arpeggio![C,G,B,E]2 ^F,G, |!ped! !arpeggio![C,_A,E]2 [C,,C,]2!ped-up! !>![G,C-E-]2 | %234
 [_A,CE] z !arpeggio![C,A,E]2 [C,,C,][E,,E,] | %235
 (!>![G,,G,][_A,,_A,]).[B,,B,].[C,C].[A,,A,].[G,,G,] | %236
 (!>![_A,,_A,][B,,B,]).[C,C].[=D,=D].[E,E].[F,F] | %237
!ped! .[F,F].[E,E].[D,D].[C,C]!ped-up!.[B,,B,].[_A,,_A,] | %238
!ped! .[^F,^F].[E,E].[D,D].[C,C]!ped-up!.[B,,B,].[=A,,=A,] |!ped! .[D,,D,] z A,!ped-up! z A, z | %240
 C z C z E z |!ped! .[D,,D,] z C!ped-up! z C z | E z E z ^F z |!ped! [D,,D,] z E!ped-up! z E z | %244
[K:treble] ^F z A z A z | c z c z e z | e z ^f z f z | .[Ae^f] z .[Geg] z !arpeggio!.[^Fea] z | %248
!ped! !arpeggio!!>![^Feb] z !arpeggio![Gea]!ped-up! z [Aeg] z | [Be^f] z [Aeg] z [Gea] z | %250
!ped! !arpeggio!!>![^Feb] z !arpeggio![Gea] z [Aeg]!ped-up! z | %251
!ped! [Bce^f]/x/[Bcef]/ x/ [Acef]/x/[Acef]/ x/ [Bcef]/x/!ped-up![Bcef]/ x/ | %252
 [Ace^f]/x/[Acef]/ x/ [Bcef]/x/[Bcef]/ x/ [Acef]/x/[Acef]/ x/ | %253
!ped! [dd']/x/[cc']/x/[Bb]/x/[Aa]/x/[^F^f]/x/[_E_e]/!ped-up! x/ |!ped! x2 x2[K:bass] x2!ped-up! | %255
 [D,D]/[I:staff -1][Ee]/[I:staff +1][C,C]/[I:staff -1][Dd]/[I:staff +1][B,,B,]/[I:staff -1][Cc]/[I:staff +1][A,,A,]/[I:staff -1][B,B]/[I:staff +1]!>![^F,,^F,]/[I:staff -1][A,A]/[I:staff +1][_E,,_E,]/[I:staff -1][^F,^F]/ | %256
[I:staff +1] [D,,D,]/!<(![I:staff -1][E,E]/[I:staff +1][^C,,^C,]/[I:staff -1][E,E]/[I:staff +1][=C,,=C,]/[I:staff -1][E,E]/[I:staff +1][B,,,B,,]/[I:staff -1][E,E]/[I:staff +1][A,,,A,,]/[I:staff -1][D,D]/[I:staff +1][^F,,,^F,,]/!<)!!fff![I:staff -1][D,D]/ || %257
[K:G][M:3/2]!ped![I:staff +1] !^![G,,,B,,,D,,G,,]!ped-up![G,,,B,,,D,,G,,][G,,,B,,,D,,G,,][G,,,B,,,D,,G,,] !^![G,,B,,D,G,][G,,B,,D,G,][G,,B,,D,G,][G,,B,,D,G,] [G,,B,,D,G,] z [G,B,DG] z | %258
!ff!!ped! !^![C,,E,,G,,C,][C,,E,,G,,C,][C,,E,,G,,C,][C,,E,,G,,C,] !^![C,E,G,C][C,E,G,C][C,E,G,C][C,E,G,C] [C,E,G,C] z!ped-up! x x | %259
!ped! !>!!^![F,,,F,,][F,,A,,C,E,][F,,A,,C,E,][F,,A,,C,E,] !^![F,A,CE][F,A,CE][F,A,CE][F,A,CE] [F,A,CE] z!ped-up! x x | %260
!ped! !^![B,,,F,,B,,][B,,,F,,B,,][B,,,F,,B,,][B,,,F,,B,,] !^![B,,D,F,A,][B,,D,F,A,][B,,D,F,A,][B,,D,F,A,] [B,,D,F,A,] z!ped-up! [B,,,B,,] z | %261
!ped! !^![E,,,E,,][E,,G,,B,,D,][E,,G,,B,,D,][E,,G,,B,,D,] !^![E,G,B,D][E,G,B,D][E,G,B,D][E,G,B,D] [E,G,B,D] z!ped-up! [E,,E,] z | %262
!ff!!ped! !^![E,G,C][E,G,C][E,G,C][E,G,C] !^![A,,E,G,][A,,E,G,][A,,E,G,][A,,E,G,] [A,,E,G,] z!ped-up! [A,,,A,,] z | %263
!ped! [D,,D,]2 [D,F,D]2!ped-up!!ped! !>![F,,F,]2 [F,A,D]2!ped-up!!ped! [G,,G,]2!ped-up! [G,B,D]2 | %264
!ped! [D,F,A,D] z [D,,D,]2 (!>![^C,,^C,]2 [D,,D,]).[E,,E,] .[D,,D,].[=C,,=C,].[B,,,B,,]!ped-up!.[A,,,A,,] | %265
!ff!!ped! !^![D,G,B,D][D,G,B,D][D,G,B,D][D,G,B,D]!ped-up! !^![B,,D,G,B,][B,,D,G,B,][B,,D,G,B,][B,,D,G,B,] [B,,D,G,B,] z [G,B,DG] z | %266
!ped! [C,,E,,G,,C,][C,,E,,G,,C,][C,,E,,G,,C,][C,,E,,G,,C,] !^![C,E,G,C][C,E,G,C][C,E,G,C][C,E,G,C] [C,E,G,C] z!ped-up! x x | %267
!ff!!ped! !^![E,^A,E][E,A,E][E,A,E][E,A,E] !^![^C,F,^A,^C][C,F,A,C][C,F,A,C][C,F,A,C] [C,F,A,C] z!ped-up! !>![F,,,F,,] z | %268
!ped! !^![^D,F,B,^D][D,F,B,D][D,F,B,D][D,F,B,D] !^![B,,^D,F,B,][B,,D,F,B,][B,,D,F,B,][B,,D,F,B,] [B,,D,F,B,] z!ped-up! [B,,,B,,] z | %269
!ped! [C,,C,] z[I:staff -1] [CEG][CEG] [CEG][I:staff +1] x [C,E,G,A,][C,E,G,A,] [C,E,G,A,] z!ped-up! [^D,,^D,] z | %270
!ped! [E,,E,] z x4 [E,G,C][E,G,C] [E,G,C]!ped-up! z [C,,C,] z | %271
!ped! [D,,D,]2 [G,DG]2 [D,,D,]2 [G,DG]2 [D,,D,]2!ped-up! [G,DG]2 | %272
 [D,,D,]2 z2!ped! [F,DF]4- [F,DF]2 [D,,D,]2!ped-up! ||[M:3/4] [G,,B,,D,G,] z .[G,DG]2 .[F,DF]2 | %274
 .[E,B,E]2 .[D,B,D]2 .[C,G,C]2 | [B,,G,B,]2 [G,,E,G,]2 [^G,,E,^G,]2 | %276
 [A,,E,A,]2 [F,,F,][E,,E,][D,,D,][F,,F,] | [G,,D,G,] z .[G,,D,G,]2 .[F,,D,F,]2 | %278
 .[E,,B,,E,]2 .[D,,B,,D,]2 .[C,,G,,C,]2 | [B,,,G,,B,,]2 [G,,,E,,G,,]2 [^G,,,E,,^G,,]2 | %280
 [A,,,E,,A,,]2 [F,,,F,,][E,,,E,,][D,,,D,,][E,,,E,,] | %281
 [G,,,D,,G,,] z [G,,,G,,][A,,,A,,][B,,,B,,][C,,C,] | %282
 !>![^C,,^C,][D,,D,] [B,,,B,,][D,,D,][E,,E,][F,,F,] | .[G,,B,,D,G,] z [G,,G,][A,,A,][B,,B,][C,C] | %284
 !>![^C,^C][D,D][B,,B,][D,D][E,E][F,F] |!ped! [G,B,DG][B,B][A,A][G,G][F,F][E,E] | x6!ped-up! %286
 !^![D,G,B,D][G,G][F,F][E,E][D,D][C,C] |!ped! !^![B,,D,G,B,][E,E][D,D][C,C][B,,B,]!ped-up![A,,A,] | %288
 !^![G,,B,,D,G,][B,,B,][A,,A,][G,,G,][F,,F,][E,,E,] | %289
!ped! !^![D,,G,,B,,D,][G,,G,][F,,F,][E,,E,]!ped-up![D,,D,][C,,C,] | %290
!ped! !^![B,,,D,,G,,B,,][E,,E,][D,,D,][C,,C,][B,,,B,,]!ped-up![A,,,A,,] | %291
 [G,,,B,,,D,,G,,] z [G,,B,,D,G,] z [G,B,DG][G,B,DG] | %292
 [G,B,DG] z [G,,B,,D,G,] z [G,,,B,,,D,,G,,][G,,,B,,,D,,G,,] | [G,,,B,,,D,,G,,]2 z2 z2 | %294
 [G,,,B,,,D,,G,,]2 z2 [G,,,B,,,D,,G,,]2 | [G,,,B,,,D,,G,,]2 z2 z2 |] %296
V:3
 x12 | x12 | x12 | x12 || x12 | x12 | x12 | [F,A,]4 [F,A,]4 x4 | x12 | x12 | %10
 [D,^F,]4 [D,G,]6 [D,G,]2 | [D,^F,]4 [D,F,]4 x4 | x12 | x12 | x12 | x12 | %16
 [E,G,]4 [E,G,]4 x2 [^F,D]2 | [G,C]4 G,4 x2 [E,G,]2 | [D,G,]4 [D,^F,]4 [D,F,]4 | B,,4 B,,4 x4 || %20
[K:treble] x12 | x12 | x12 | x12 | x4[K:bass] x8 | x12 | [G,C]4 [G,C]4 [G,=B,]4 | x12 | %28
 x2[K:treble] x10 | x12 | [G,B,]4 B,4 A,4 | x12 | x12 | E x x2 x8 | x12 | F x x2 x8 | x12 | x12 | %38
 D4 x8 | x12 | x12 | [G,B,E]2 x2 x8 | [A,E]2 x2 x4 x2 C2 | D2 x2 x4 x2 D2 | [G,_E]2 x2 x8 | %45
 [G,CG]2 x2 x8 | x12 | x12 | z _AGF z FED ^CD[I:staff +1]G,F, |[I:staff -1] z GFE z EDC x2 x2 | %50
 z [F_A][EG][DF] z [DF][CE][=B,D] x4 | z [CE][DF][EG] z [EG][F_A][EG] [D^F][EG] x2 | %52
 z _AGF F_AFE DFEG | z [_Ac][GB][FA] z [FA][G_B][FA] [EG][DF] x2 | x12 | x12 | x12 | x!8va(! x11 | %58
 x4!8va)! x8 | x12 | x12 | x12 | x2 B,2 x8 | x2 B,2 x8 | x2 A,2 x8 | x2 A,2 x8 | x2 G,2 x8 | %67
 x2 G,2 x8 | C/D/C/=B,/ C/E/D/C/ _B,/C/B,/A,/ B,/D/C/B,/ x4 | x12 | %70
 x2 (3[df][ce][GB] x2 (3[GB][FA][EG] (3[DF][CE][B,D] x2 | %71
 x2 (3[ce][Bd][Ac] x2 (3[GB][FA][EG] (3[DF][CE][B,D] x2 | %72
 x2 (3[ce][Bd][Ac] x2 (3[Ac][GB][FA] (3[EG][DF][CE] x2 | %73
 x2 (3[df][ce][GB] x2 (3[Bd][Ac][GB] (3[FA][EG][DF] x2 | z2 [EG]2 [EG]2 [CGA]2 !^![CGA] x x x | %75
 x2 G2 G2 [EGc]2 !^![EGc] z x2 | x2[K:bass] G,2 G,2 G,2 ^F,2 F,2 | x12 |[K:treble] x12 | %79
 x8!8va(! x4 | x4!8va)! x8 | x12 | x4[K:bass] x8 | x12 | [G,C]4 [^F,C]4 [=F,=B,]4 | %85
 !>!F,/G,/F,/G,/F,/G,/F,/G,/ !>!E,/F,/E,/F,/ !>!D,/E,/D,/E,/ !>!C,/D,/C,/D,/ !>!=B,,/C,/B,,/C,/ | %86
[K:treble] x2 (3[EG][DF][CE] x2 (3[Ac][GB][FA] (3[ce][Bd][Ac] x2 | %87
 x2 (3[FB][EG][DF] x2 (3[Bd][Fc][GB] (3!>![df][ce][GB] x2 | x2 [GB]2 [GB]2 [_GB]2 [FA]2 [EA]2 | %89
 x12 | x17/2!8va(! x7/2 | x12 | x4!8va)! x8 | x12 | x4[K:bass] x8 | x12 | x12 | x12 | x12 | x12 | %100
 x12 | x12 | x12 ||[K:Gb] x12 | x12 | x12 | x8[K:treble] x4 | x12 | x12 | x12 | x12 | x12 | x12 | %113
 x12 | x12 | x12 | x12 | x12 | x12 | x10[K:bass] x2 | x12 | x12 | x12 | x4 x4 x2[K:treble] G2 | %124
 G2 A2 =A2 B2{/_A} G2 x2 | x4 x4 x2 F2 | F2 G2 =G2 A2{/_G} F2[K:bass] x2 | %127
 [E,G,]4 [E,G,]4[K:treble] [EG]4- | [EG]2 z2 [eg]6 z2 | x12 | x12 | x12 | x12 | G,4 x4 G4- | %134
 G2 z2 g6 x2 | x8!8va(! x4 | x8!8va)! x4 | x12 | x12 | x4 x4 E2 D2 | D4 C2 D2 B,4 |[K:bass] x12 | %142
 x12 | x12 | x12 | x12 | x12 | x12 | x12 | x12 | x12 | x12 | x12 ||[K:Bb][M:3/4][K:treble] x6 | %154
 x6 | x6 | x6 | x6 | x6 | x6 | x6 | x6 | [FB]2 [CF]2 [DG]2 | E2 D2 [CG]2 | x6 | x6 | x6 | x6 | %168
 [ce]2 x2 [Ad]2 | x6 | x2 x2 [Ee]2 | F2 F2 [DG]2 | [FA]2 x4 | [EG]2 D2 F2 | %174
 [FB]2 [DF][=EG][FA][EG] | x6 | x2 x2 A2 | G2 B2 c2 | F2 B2 [FB]2 | G2 z2 G2 | A2 F2 G2 | %181
 G2 F2 F2 | x6 | x2 x2 [Ee]2 | F2 F2 [DG]2 | x6 | x6 | x6 | x6 | x6 | x6 | x6 | x6 | x6 | x6 | %195
 x2 .G.[B,D] .A.[D^F] | .B.[DG] .c.[CG] .d.[DG] | .e.[EG] .c.[FA] .f.[FA] | %198
 .d.[DF] .d.[D^F] .B.[DG] | .A.[EG] .B.[DG] .G.[G,C] | .^F.[A,D] .[B,D].E .C.D | %201
 .[DG][I:staff +1].D,[I:staff -1] .[DG][I:staff +1].D,[I:staff -1] .[DG][I:staff +1].G, | %202
[I:staff -1] .[EG][I:staff +1].[G,C][I:staff -1] .[FA][I:staff +1].[A,C][I:staff -1] .[FA][I:staff +1].[F,A,] | %203
[I:staff -1] .[EB][I:staff +1].[F,B,][I:staff -1] .[DB][I:staff +1].[G,B,][I:staff -1] .[GB][I:staff +1].[B,E] | %204
[I:staff -1] .G[I:staff +1].[CE][I:staff -1] .[Bd][I:staff +1].[B,G][I:staff -1] .A[I:staff +1].[D^F] | %205
[I:staff -1] x x G4 | G2 G2 F2 | x2 G2 G2 | _A4 G2 | G2 F2 E2 | _A2 G2 F2 | x2 [=EG]2 [EG]2 | %212
 F2 [A,C]2 [A,C]2 | x6 | [B,EG]2 [B,EG]2 F2 | [DFB]2 [DF][=EG][FA][EG] | x6 | x2 [Ad]2 B2 | x6 | %219
 [Ad]2 [Ad]2 ^c2 | x6 | x2 DD DD | DG GGGG | Gc FFFF | FB[DF] x x2 | x6 | x6 | x2 DD DD | DG GGGG | %229
 Gc FFFF | [DFB][DFB][DFB] x x2 | e2 e2 x2 | x6 | e2 e2 x2 | x6 | x6 | x6 | x6 | x6 | x x C x C x | %240
 E x E x ^F x | x x E x E x | ^F x =F x A x | x x ^F x =F x | A x c x c x | e x e x ^f x | %246
 ^f x!8va(! a x b x | c'c'c'c'c'c' | c'c'c'c'c'c' | c'c'c'c'c'c' | c'c'c'c'c'c' | x6 | x6 | %253
 x6!8va)! | x6 | x6 |[K:bass] x6 ||[K:G][M:3/2] x4[K:treble] x8 | x4 x4 x x [CEGc] x | %259
 x4 x4 x x [FAce] x | x12 | x12 | x12 | x12 | x12 | x12 | x4 x4 x x [CEGc] x | x12 | x12 | x12 | %270
 x x [EAc][EAc] [EAc] x x2 x x x x | x8!8va(! x4 | x6!8va)! x6 ||[M:3/4] x6 | x6 | x6 | x6 | x6 | %278
 x6 | x2[K:bass] x4 | x6 | x2[K:treble] x4 | x6 | x6 | x6 |!8va(! x6 | x6!8va)! | x6 | x6 | x6 | %290
 x6 | x4!8va(! x2 | x!8va)! x5 | x6 | x6 | x6 |] %296
V:4
!8vb(! x12 | x12 | x12 | x12 || x12 | x12 | x12 | x12 | x12 | x12 | x12 | x12 | x12 | x12 | x12 | %15
 x12 | x12 | x12 | x12 | x12!8vb)! || x12 | x12 | x12 | x12 | x12 | x12 | x12 | x12 | x12 | x12 | %30
 x12 | x12 | G,,2 x2 x8 | [=C,,=C,]2 x2 x8 | [F,,F,]2 x2 x8 | [B,,,B,,]2 x2 x8 | E,,2 x2 x8 | %37
 A,,2 x2 x8 | x12 | x12 | x12 | x12 | x12 | [B,,,B,,]2 x2 x2 x2 x2 x2 | x12 | x12 | x12 | x12 | %48
 x12 | x12 | x4 x4 G,,2 x2 | x12 | [F,,F,]2 z2 !>!G,,6- G,,2 | [_A,,F,_A,]2 x2 [=B,,,=B,,]2 x2 x4 | %54
 x12 | x12 | x12 | x12 | x12 | z4 B,,,2 z C, B,,A,,G,,F,, | %60
 E,,D,,G,,F,, E,,D,,C,,B,,, A,,,B,,,C,,D,, | B,,,C,,D,,E,, .C,,2 .B,,,2 .A,,,2 .D,,2 | %62
 !>![G,,,G,,]2 [G,,D,G,]2 x6 B, x | !>![C,,C,]2 [C,G,]2 x6 C x | !>![F,,,F,,]2 [F,,C,F,]2 C6 C x | %65
 !>![B,,,B,,]2 [B,,F,]2 x6 B, x | !>![E,,B,,E,]2 [E,,B,,E,]2 x6 B, x | %67
 !>![A,,,A,,]2 [A,,E,]2 x6 A, x | x4 x4 B,, z x2 | D, z x2 x8 | x12 | x12 | x12 | x12 | x12 | x12 | %76
 x12 | x12 | x12 | x12 | x12 | x12 | x12 | x12 | x12 | x12 | x12 | x12 | x12 | %89
 x2 [B,,,B,,]/x/[B,,,B,,]/ x/ [D,,D,]/x/[D,,D,]/ x/ [F,,F,]/x/[F,,F,]/ x/ x4 | x4[K:treble] x8 | %91
 x12 | x12 | x4[K:bass] x8 | x12 | x12 | x12 | x12 | x12 | x12 | x12 | x12 | x12 || %103
[K:Gb]!8vb(! x12 | x12 | x12 | x12 | x12 | x12 | x12!8vb)! | x12 | x12 | x12 | x2!8vb(! x10 | x12 | %115
 x12 | x12 | x4!8vb)! x8 | x12 | x10!8vb(! x2 | x12 | x12 | x8!8vb)! x4 | x4 x4 x2 B,2 | C4 C4 x4 | %125
 x4 x4 x2 A,2 | B,4 B,4 x4 | x12 | x4[K:treble] x8 | x12 | x12 | x12 | x8[K:bass] x4 | x12 | %134
 x4[K:treble] x8 | x12 | x12 | x12 | x8[K:bass] E,,4 | D,,4 =C,,4 _C,,4 | B,,,4 A,,,4 G,,,4 | %141
!8vb(! x12 | x12 | x12 | x12 | x12 | x12 | x12 | x12 | x12 | x12 | x8!8vb)! x4 | x12 || %153
[K:Bb][M:3/4] x2 .^F,,2 .G,,2 | .A,,2 .B,,2 .C,2 | x2 .A,,2 .B,,2 | .C,2 .D,2 .E,2 | x6 | x6 | x6 | %160
 x6 | x6 | x6 | x6 | x6 | x6 | x6 | x6 | x6 | x6 | x2 x2 [C,C]2 | x6 | x6 | x6 | x6 | x6 | %176
 x2 !>!F,,2 z2 | x6 | x6 | x6 | x2 D,2 G,2 | E,2 F,2 !>!F,,2 | x6 | x2 x2 [C,C]2 | x6 | x6 | x6 | %187
 x6 | x2 x2 !arpeggio!G,,2 | x6 | x6 | x6 | x6 | x6 | x6 | x2 .B,, x .D,, x | %196
 .G,, x .A,, x .B,, x | .C, x .F, x .F,, x | .B,, x .A,, x .G,, x | .C, x .D, x .E,, x | x6 | x6 | %202
 x6 | x6 | x6 | x6 | x6 | x6 | F,2 D,2 G,2 | C,2 G,2 _A,2 | F,2 G,2 G,,2 | x6 | x6 | x6 | x6 | x6 | %216
 x6 | x6 | x6 | x6 | x6 | x z G,,2 D,,2 | G,,2 A,,2 B,,2 | C,2 [F,A,]2 !>!F,,2 | B,,2 B,, x x2 | %225
 x6 | x6 | x z G,,2 D,,2 | G,,2 A,,2 B,,2 | C,2 [F,A,]2 !>!F,,2 | x6 | x6 | x6 | x6 | x6 | x6 | %236
 x6 | x6 | x6 | x x (3D,/E,/.D,/ x (3E,/=F,/.E,/ x | %240
 (3^F,/G,/.F,/ x (3G,/A,/.G,/ x (3A,/B,/.A,/ x | x x (3^F,/G,/.F,/ x (3G,/A,/.G,/ x | %242
 (3A,/B,/.A,/ x (3B,/C/.B,/ x (3C/D/.C/ x | x x (3A,/B,/.A,/ x (3B,/C/.B,/ x | %244
[K:treble] (3C/D/.C/ x (3D/E/.D/ x (3E/=F/.E/ x | (3^F/G/.F/ x (3G/A/.G/ x (3A/B/.A/ x | %246
 (3B/c/.B/ x (3c/d/.c/ x (3B/d/.c/ x | x6 | x6 | x6 | x6 | x6 | x6 | x6 | x4[K:bass] x2 | x6 | %256
 x6 ||[K:G][M:3/2] x12 | x12 | x12 | x12 | x12 | %262
 !^![A,,,E,,A,,][A,,,E,,A,,][A,,,E,,A,,][A,,,E,,A,,] x x x x x x x x | x12 | x12 | %265
 !^![B,,,D,,G,,B,,][B,,,D,,G,,B,,][B,,,D,,G,,B,,][B,,,D,,G,,B,,] x x x x x x x x | x12 | %267
 !^![^C,,F,,^A,,^C,][C,,F,,A,,C,][C,,F,,A,,C,][C,,F,,A,,C,] x x x x x x x x | %268
 !^![B,,,^D,,F,,B,,][B,,,D,,F,,B,,][B,,,D,,F,,B,,][B,,,D,,F,,B,,] x x x x x x x x | x12 | x12 | %271
 x12 | x12 ||[M:3/4] x6 | x6 | x6 | x6 | x6 | x6 | x6 | x6 | x6 | x6 | x6 | x6 | x6 | x6 | x6 | %288
 x6 | x6 | x6 | x6 | x6 | x6 | x6 | x6 |] %296
V:5
 x12 | x12 | x12 | x12 || x12 | x12 | x12 | x12 | x12 | x12 | x12 | x12 | x12 | x12 | x12 | x12 | %16
 x12 | x12 | x12 | x12 ||[K:treble] x12 | x12 | x12 | x12 | x4[K:bass] x8 | x12 | x12 | x12 | %28
 x2[K:treble] x10 | x12 | x12 | x12 | x12 | x12 | x12 | A4 x8 | x12 | x12 | x12 | x12 | x12 | x12 | %42
 x12 | x12 | x12 | x12 | x12 | x12 | x12 | x12 | x12 | x12 | x12 | x12 | x12 | x12 | x12 | %57
 x!8va(! x11 | x4!8va)! x8 | x12 | x12 | x12 | x12 | x12 | x12 | x12 | x12 | x12 | x12 | x12 | %70
 x12 | x12 | x12 | x12 | x12 | x12 | x2[K:bass] x10 | x12 |[K:treble] x12 | x8!8va(! x4 | %80
 x4!8va)! x8 | x12 | x4[K:bass] x8 | x12 | x12 | x12 |[K:treble] x12 | x12 | x12 | x12 | %90
 x17/2!8va(! x7/2 | x12 | x4!8va)! x8 | x12 | x4[K:bass] x8 | x12 | x12 | x12 | x12 | x12 | x12 | %101
 x12 | x12 ||[K:Gb] x12 | x12 | x12 | x8[K:treble] x4 | x12 | x12 | x12 | x12 | x12 | x12 | x12 | %114
 x12 | x12 | x12 | x12 | x12 | x10[K:bass] x2 | x12 | x12 | x12 | x10[K:treble] x2 | x12 | x12 | %126
 x10[K:bass] x2 | x8[K:treble] x4 | x12 | x12 | x12 | x12 | x12 | x12 | x12 | x8!8va(! x4 | %136
 x8!8va)! x4 | x12 | x12 | x12 | x12 |[K:bass] x12 | x12 | x12 | x12 | x12 | x12 | x12 | x12 | %149
 x12 | x12 | x12 | x12 ||[K:Bb][M:3/4][K:treble] x6 | x6 | x6 | x6 | x6 | x6 | x6 | x6 | x6 | x6 | %163
 x6 | x6 | x6 | x6 | x6 | x6 | x6 | x6 | x6 | x6 | x6 | x6 | x6 | x6 | x6 | x6 | x6 | x6 | x6 | %182
 x6 | x6 | x6 | x6 | x6 | x6 | x6 | x6 | x6 | x6 | x6 | x6 | x6 | x6 | x6 | x6 | x6 | x6 | x6 | %201
 x6 | x6 | x6 | e2 x4 | x6 | x6 | x6 | x6 | x6 | x6 | x6 | x6 | x6 | x6 | x6 | x6 | x6 | x6 | x6 | %220
 x6 | x6 | x6 | x6 | x6 | x6 | x6 | x6 | x6 | x6 | x6 | x6 | x6 | x6 | x6 | x6 | x6 | x6 | x6 | %239
 x6 | x6 | x6 | x6 | x6 | x6 | x6 | x2!8va(! x4 | x6 | x6 | x6 | x6 | x6 | x6 | x6!8va)! | x6 | %255
 x6 |[K:bass] x6 ||[K:G][M:3/2] x4[K:treble] x8 | x12 | x12 | x12 | x12 | x12 | x12 | x12 | x12 | %266
 x12 | x12 | x12 | x12 | x12 | x8!8va(! x4 | x6!8va)! x6 ||[M:3/4] x6 | x6 | x6 | x6 | x6 | x6 | %279
 x2[K:bass] x4 | x6 | x2[K:treble] x4 | x6 | x6 | x6 |!8va(! x6 | x6!8va)! | x6 | x6 | x6 | x6 | %291
 x4!8va(! x2 | x!8va)! x5 | x6 | x6 | x6 |] %296

